; generated by PrusaSlicer 2.3.3+win64 on 2021-12-02 at 11:12:51 UTC

; 

; external perimeters extrusion width = 0.65mm
; perimeters extrusion width = 0.65mm
; infill extrusion width = 0.65mm
; solid infill extrusion width = 0.65mm
; top infill extrusion width = 0.60mm
; first layer extrusion width = 0.65mm

M73 P0 R169
M73 Q0 S171
M201 X1000 Y1000 Z200 E5000 ; sets maximum accelerations, mm/sec^2
M203 X200 Y200 Z12 E120 ; sets maximum feedrates, mm/sec
M204 P1250 R1250 T1250 ; sets acceleration (P, T) and retract acceleration (R), mm/sec^2
M205 X8.00 Y8.00 Z0.40 E4.50 ; sets the jerk limits, mm/sec
M205 S0 T0 ; sets the minimum extruding and travel feed rate, mm/sec
M107
;TYPE:Custom
M862.3 P "MK3S" ; printer model check
M862.1 P0.6 ; nozzle diameter check
M115 U3.10.0 ; tell printer latest fw version
G90 ; use absolute coordinates
M83 ; extruder relative mode
M104 S215 ; set extruder temp
M140 S60 ; set bed temp
M190 S60 ; wait for bed temp
M109 S215 ; wait for extruder temp
G28 W ; home all without mesh bed level
G80 ; mesh bed leveling
G1 Y-3.0 F1000.0 ; go outside print area
G92 E0.0
G1 X60.0 E9.0 F1000.0 ; intro line
G1 X100.0 E12.5 F1000.0 ; intro line
G92 E0.0
M221 S95
G21 ; set units to millimeters
G90 ; use absolute coordinates
M83 ; use relative distances for extrusion
M900 K0.04 ; Filament gcode LA 1.5
M900 K18 ; Filament gcode LA 1.0
;LAYER_CHANGE
;Z:0.2
;HEIGHT:0.2
;BEFORE_LAYER_CHANGE
G92 E0.0
;0.2


G1 E-0.80000 F2100.000
G1 Z0.400 F10800.000
;AFTER_LAYER_CHANGE
;0.2
G1 X168.592 Y171.814
G1 Z0.200
G1 E0.80000 F2100.000
M204 S1000
;TYPE:Skirt
;WIDTH:0.65
G1 F1200.000
G1 X167.967 Y171.861 E0.03162
G1 X167.653 Y171.791 E0.01625
G1 X135.186 Y153.046 E1.89243
G1 X132.999 Y152.186 E0.11864
G1 X130.522 Y152.156 E0.12502
G1 X119.478 Y152.156 E0.55750
G1 X117.001 Y152.186 E0.12502
G1 X114.814 Y153.046 E0.11864
G1 X82.347 Y171.791 E1.89243
G1 X82.033 Y171.861 E0.01625
G1 X81.408 Y171.814 E0.03162
G1 X81.160 Y171.715 E0.01348
G1 X79.623 Y170.579 E0.09650
G1 X78.302 Y169.558 E0.08427
G1 X77.024 Y168.525 E0.08294
G1 X75.747 Y167.446 E0.08436
G1 X74.358 Y166.217 E0.09362
G1 X72.972 Y164.929 E0.09551
G1 X71.630 Y163.617 E0.09475
G1 X70.330 Y162.284 E0.09399
G1 X69.048 Y160.903 E0.09512
G1 X67.796 Y159.485 E0.09550
G1 X66.598 Y158.059 E0.09401
G1 X65.430 Y156.598 E0.09441
G1 X63.835 Y154.477 E0.13396
G1 X62.323 Y152.313 E0.13325
G1 X60.878 Y150.085 E0.13404
G1 X59.515 Y147.814 E0.13371
G1 X58.438 Y145.885 E0.11152
G1 X57.426 Y143.939 E0.11070
G1 X56.744 Y142.546 E0.07832
G1 X56.095 Y141.149 E0.07773
G1 X55.472 Y139.735 E0.07803
G1 X54.746 Y137.991 E0.09531
G1 X54.733 Y137.608 E0.01938
G1 X54.968 Y136.913 E0.03704
G1 X55.170 Y136.651 E0.01667
G1 X92.606 Y115.026 E2.18237
G1 X94.482 Y113.646 E0.11758
G1 X95.740 Y111.602 E0.12114
G1 X98.365 Y107.035 E0.26589
G1 X102.986 Y74.221 E1.67275
G1 X102.986 Y46.606 E1.39396
G1 X103.009 Y46.077 E0.02674
G1 X103.077 Y45.541 E0.02725
G1 X103.165 Y45.104 E0.02253
G1 X103.281 Y44.684 E0.02198
G1 X103.462 Y44.177 E0.02714
G1 X103.702 Y43.654 E0.02907
G1 X103.954 Y43.204 E0.02604
G1 X104.242 Y42.775 E0.02606
G1 X104.552 Y42.384 E0.02523
G1 X104.877 Y42.032 E0.02418
G1 X105.306 Y41.636 E0.02944
G1 X105.678 Y41.344 E0.02389
G1 X106.074 Y41.079 E0.02405
G1 X106.589 Y40.792 E0.02976
G1 X107.023 Y40.594 E0.02406
G1 X107.503 Y40.418 E0.02584
G1 X108.319 Y40.199 E0.04265
G1 X109.914 Y39.826 E0.08268
G1 X112.264 Y39.346 E0.12108
G1 X114.623 Y38.948 E0.12074
G1 X116.991 Y38.630 E0.12063
G1 X118.629 Y38.458 E0.08314
G1 X121.004 Y38.276 E0.12023
G1 X123.362 Y38.175 E0.11915
G1 X125.036 Y38.152 E0.08450
G1 X127.407 Y38.199 E0.11973
G1 X129.793 Y38.328 E0.12061
G1 X132.168 Y38.537 E0.12032
G1 X133.802 Y38.727 E0.08304
G1 X136.137 Y39.067 E0.11911
G1 X137.757 Y39.351 E0.08306
G1 X140.086 Y39.826 E0.11996
G1 X141.681 Y40.199 E0.08268
G1 X142.497 Y40.418 E0.04265
G1 X142.977 Y40.594 E0.02584
G1 X143.411 Y40.792 E0.02406
G1 X143.926 Y41.079 E0.02976
G1 X144.322 Y41.344 E0.02405
G1 X144.694 Y41.636 E0.02389
G1 X145.123 Y42.032 E0.02944
G1 X145.448 Y42.384 E0.02418
G1 X145.758 Y42.775 E0.02523
G1 X146.046 Y43.204 E0.02607
G1 X146.298 Y43.654 E0.02603
G1 X146.538 Y44.177 E0.02907
G1 X146.719 Y44.684 E0.02714
G1 X146.835 Y45.104 E0.02198
G1 X146.923 Y45.541 E0.02253
G1 X146.991 Y46.077 E0.02725
G1 X147.014 Y46.606 E0.02674
G1 X147.014 Y74.221 E1.39396
G1 X151.635 Y107.035 E1.67275
G1 X154.260 Y111.602 E0.26589
G1 X155.518 Y113.646 E0.12114
G1 X157.394 Y115.026 E0.11758
G1 X194.788 Y136.616 E2.17965
G1 X195.032 Y136.913 E0.01938
G1 X195.267 Y137.608 E0.03704
G1 X195.254 Y137.991 E0.01938
G1 X194.523 Y139.746 E0.09593
G1 X193.905 Y141.149 E0.07742
G1 X193.254 Y142.551 E0.07804
G1 X192.574 Y143.939 E0.07801
G1 X191.566 Y145.877 E0.11025
G1 X190.485 Y147.814 E0.11197
G1 X189.122 Y150.085 E0.13371
G1 X187.677 Y152.313 E0.13404
G1 X186.165 Y154.477 E0.13325
G1 X184.570 Y156.598 E0.13396
G1 X183.402 Y158.059 E0.09441
G1 X182.204 Y159.485 E0.09401
G1 X180.952 Y160.903 E0.09550
G1 X179.670 Y162.284 E0.09512
G1 X178.370 Y163.617 E0.09399
G1 X177.028 Y164.929 E0.09475
G1 X175.642 Y166.217 E0.09551
G1 X174.253 Y167.446 E0.09362
G1 X172.976 Y168.525 E0.08436
G1 X171.698 Y169.558 E0.08294
G1 X170.377 Y170.579 E0.08427
G1 X168.840 Y171.715 E0.09650
G1 X168.675 Y171.781 E0.00894
G1 X167.985 Y171.252 F10800.000
G1 F1200.000
G1 X167.899 Y171.232 E0.00447
G1 X135.450 Y152.498 E1.89137
G1 X133.117 Y151.581 E0.12654
G1 X130.526 Y151.549 E0.13082
G1 X119.474 Y151.549 E0.55788
G1 X116.883 Y151.581 E0.13082
G1 X114.550 Y152.498 E0.12654
G1 X82.101 Y171.232 E1.89137
M73 Q0 S170
G1 X82.015 Y171.252 E0.00447
G1 X81.564 Y171.227 E0.02276
G1 X81.481 Y171.197 E0.00447
G1 X79.986 Y170.092 E0.09383
G1 X78.681 Y169.083 E0.08327
G1 X77.408 Y168.055 E0.08261
G1 X76.147 Y166.990 E0.08333
G1 X74.763 Y165.765 E0.09326
G1 X73.389 Y164.487 E0.09476
G1 X72.062 Y163.191 E0.09362
G1 X70.767 Y161.863 E0.09362
G1 X69.496 Y160.493 E0.09437
G1 X68.258 Y159.091 E0.09437
G1 X67.065 Y157.671 E0.09363
G1 X65.907 Y156.223 E0.09362
G1 X64.323 Y154.116 E0.13301
G1 X62.823 Y151.970 E0.13219
G1 X61.396 Y149.768 E0.13245
G1 X60.042 Y147.514 E0.13272
G1 X58.971 Y145.593 E0.11106
G1 X57.966 Y143.662 E0.10984
G1 X57.290 Y142.282 E0.07760
G1 X56.647 Y140.896 E0.07711
G1 X56.031 Y139.498 E0.07711
G1 X55.338 Y137.834 E0.09098
G1 X55.335 Y137.724 E0.00558
G1 X55.517 Y137.186 E0.02868
G1 X55.587 Y137.100 E0.00558
G1 X92.939 Y115.535 E2.17717
G1 X94.937 Y114.064 E0.12524
G1 X96.262 Y111.912 E0.12757
G1 X98.949 Y107.236 E0.27228
G1 X103.593 Y74.263 E1.68082
G1 X103.593 Y46.612 E1.39580
G1 X103.613 Y46.139 E0.02390
G1 X103.674 Y45.649 E0.02493
G1 X103.753 Y45.255 E0.02032
G1 X103.863 Y44.857 E0.02084
G1 X104.029 Y44.395 E0.02474
G1 X104.248 Y43.919 E0.02646
G1 X104.465 Y43.531 E0.02243
G1 X104.726 Y43.142 E0.02367
G1 X105.007 Y42.786 E0.02288
G1 X105.299 Y42.469 E0.02177
G1 X105.691 Y42.105 E0.02697
G1 X106.027 Y41.841 E0.02157
G1 X106.382 Y41.603 E0.02159
G1 X106.854 Y41.339 E0.02729
G1 X107.244 Y41.160 E0.02169
G1 X107.675 Y41.001 E0.02316
G1 X108.463 Y40.789 E0.04118
G1 X110.048 Y40.418 E0.08221
G1 X112.381 Y39.942 E0.12016
G1 X114.719 Y39.547 E0.11970
G1 X117.068 Y39.232 E0.11963
G1 X118.680 Y39.063 E0.08183
G1 X121.035 Y38.882 E0.11923
G1 X123.384 Y38.782 E0.11867
G1 X125.029 Y38.759 E0.08306
G1 X127.390 Y38.806 E0.11921
G1 X129.755 Y38.934 E0.11957
G1 X132.110 Y39.141 E0.11932
G1 X133.727 Y39.330 E0.08217
G1 X136.045 Y39.668 E0.11824
G1 X137.640 Y39.946 E0.08175
G1 X139.952 Y40.418 E0.11909
G1 X141.537 Y40.789 E0.08221
G1 X142.325 Y41.001 E0.04118
G1 X142.756 Y41.160 E0.02316
G1 X143.146 Y41.339 E0.02169
G1 X143.618 Y41.603 E0.02729
G1 X143.973 Y41.841 E0.02159
G1 X144.309 Y42.105 E0.02157
G1 X144.701 Y42.469 E0.02697
G1 X144.993 Y42.786 E0.02177
G1 X145.274 Y43.142 E0.02288
G1 X145.535 Y43.531 E0.02367
G1 X145.752 Y43.919 E0.02243
G1 X145.971 Y44.395 E0.02646
G1 X146.137 Y44.857 E0.02474
G1 X146.247 Y45.255 E0.02084
G1 X146.326 Y45.649 E0.02032
G1 X146.387 Y46.139 E0.02493
G1 X146.407 Y46.612 E0.02390
G1 X146.407 Y74.263 E1.39580
G1 X151.051 Y107.236 E1.68082
G1 X153.738 Y111.912 E0.27228
G1 X155.063 Y114.064 E0.12757
G1 X157.061 Y115.535 E0.12524
G1 X194.413 Y137.100 E2.17717
M73 P0 R168
G1 X194.483 Y137.186 E0.00558
G1 X194.665 Y137.724 E0.02868
G1 X194.662 Y137.834 E0.00558
G1 X193.966 Y139.504 E0.09129
G1 X193.351 Y140.902 E0.07711
G1 X192.707 Y142.287 E0.07711
G1 X192.034 Y143.662 E0.07729
G1 X191.029 Y145.593 E0.10984
G1 X189.958 Y147.514 E0.11106
G1 X188.604 Y149.768 E0.13272
G1 X187.177 Y151.970 E0.13245
G1 X185.677 Y154.116 E0.13219
G1 X184.093 Y156.223 E0.13301
G1 X182.935 Y157.671 E0.09362
G1 X181.742 Y159.091 E0.09363
G1 X180.504 Y160.493 E0.09437
G1 X179.233 Y161.863 E0.09437
G1 X177.938 Y163.191 E0.09362
G1 X176.611 Y164.487 E0.09362
G1 X175.237 Y165.765 E0.09476
G1 X173.853 Y166.990 E0.09326
G1 X172.592 Y168.055 E0.08333
G1 X171.319 Y169.083 E0.08261
G1 X170.014 Y170.092 E0.08327
G1 X168.519 Y171.197 E0.09383
G1 X168.436 Y171.227 E0.00447
G1 X168.075 Y171.247 E0.01822
G1 X168.086 Y170.639 F10800.000
G1 F1200.000
G1 X135.715 Y151.949 E1.88685
G1 X133.236 Y150.975 E0.13444
G1 X130.530 Y150.942 E0.13662
G1 X119.470 Y150.942 E0.55826
G1 X116.764 Y150.975 E0.13662
G1 X114.285 Y151.949 E0.13444
G1 X81.914 Y170.639 E1.88685
G1 X81.733 Y170.628 E0.00914
G1 X80.349 Y169.606 E0.08685
G1 X79.060 Y168.609 E0.08228
G1 X77.792 Y167.585 E0.08228
G1 X76.546 Y166.533 E0.08230
G1 X75.168 Y165.313 E0.09289
G1 X73.810 Y164.050 E0.09363
G1 X72.489 Y162.759 E0.09324
G1 X71.205 Y161.442 E0.09286
G1 X69.943 Y160.082 E0.09361
G1 X68.721 Y158.698 E0.09324
G1 X67.537 Y157.289 E0.09288
G1 X66.384 Y155.847 E0.09320
G1 X64.818 Y153.764 E0.13153
G1 X63.324 Y151.626 E0.13166
G1 X61.908 Y149.442 E0.13139
G1 X60.570 Y147.214 E0.13119
G1 X59.507 Y145.309 E0.11014
G1 X58.507 Y143.386 E0.10943
G1 X57.840 Y142.023 E0.07657
G1 X57.201 Y140.649 E0.07649
G1 X56.590 Y139.262 E0.07649
G1 X55.964 Y137.758 E0.08226
G1 X56.037 Y137.541 E0.01155
G1 X93.272 Y116.044 E2.17031
G1 X95.392 Y114.483 E0.13291
G1 X96.783 Y112.224 E0.13395
G1 X99.487 Y107.541 E0.27293
G1 X99.550 Y107.327 E0.01126
G1 X104.200 Y74.306 E1.68333
G1 X104.200 Y46.618 E1.39765
G1 X104.217 Y46.201 E0.02109
G1 X104.272 Y45.757 E0.02256
G1 X104.346 Y45.385 E0.01915
G1 X104.445 Y45.031 E0.01857
G1 X104.595 Y44.614 E0.02236
G1 X104.794 Y44.185 E0.02386
G1 X104.977 Y43.858 E0.01892
G1 X105.211 Y43.507 E0.02130
G1 X105.462 Y43.187 E0.02054
G1 X105.721 Y42.905 E0.01935
G1 X106.077 Y42.574 E0.02450
G1 X106.375 Y42.339 E0.01920
G1 X106.710 Y42.113 E0.02036
G1 X107.119 Y41.885 E0.02362
G1 X107.467 Y41.724 E0.01937
G1 X107.846 Y41.583 E0.02043
G1 X108.606 Y41.379 E0.03970
G1 X110.182 Y41.010 E0.08174
G1 X112.497 Y40.538 E0.11924
G1 X114.805 Y40.148 E0.11815
G1 X117.144 Y39.835 E0.11915
G1 X118.731 Y39.668 E0.08052
G1 X121.066 Y39.489 E0.11824
G1 X123.405 Y39.389 E0.11819
G1 X125.022 Y39.366 E0.08162
G1 X127.363 Y39.413 E0.11817
G1 X129.718 Y39.540 E0.11905
G1 X132.053 Y39.745 E0.11832
G1 X133.652 Y39.932 E0.08129
G1 X135.953 Y40.268 E0.11737
G1 X137.523 Y40.542 E0.08045
G1 X139.818 Y41.010 E0.11821
G1 X141.394 Y41.379 E0.08174
G1 X142.154 Y41.583 E0.03970
G1 X142.533 Y41.724 E0.02043
G1 X142.881 Y41.885 E0.01937
G1 X143.290 Y42.113 E0.02362
G1 X143.625 Y42.339 E0.02036
G1 X143.923 Y42.574 E0.01920
G1 X144.279 Y42.905 E0.02450
G1 X144.538 Y43.187 E0.01935
G1 X144.789 Y43.507 E0.02054
G1 X145.023 Y43.858 E0.02130
G1 X145.206 Y44.185 E0.01891
G1 X145.405 Y44.614 E0.02386
G1 X145.555 Y45.031 E0.02236
G1 X145.654 Y45.385 E0.01857
G1 X145.728 Y45.757 E0.01915
G1 X145.783 Y46.201 E0.02256
G1 X145.800 Y46.618 E0.02109
G1 X145.800 Y74.306 E1.39765
G1 X150.450 Y107.327 E1.68333
G1 X150.513 Y107.541 E0.01126
G1 X153.217 Y112.224 E0.27293
G1 X154.608 Y114.483 E0.13395
G1 X156.728 Y116.044 E0.13291
G1 X193.963 Y137.541 E2.17031
G1 X194.036 Y137.758 E0.01155
G1 X193.410 Y139.262 E0.08226
G1 X192.799 Y140.649 E0.07649
G1 X192.160 Y142.023 E0.07649
G1 X191.493 Y143.386 E0.07657
G1 X190.493 Y145.309 E0.10943
G1 X189.430 Y147.214 E0.11014
G1 X188.092 Y149.442 E0.13119
G1 X186.676 Y151.626 E0.13139
G1 X185.182 Y153.764 E0.13166
G1 X183.616 Y155.847 E0.13153
G1 X182.463 Y157.289 E0.09320
G1 X181.279 Y158.698 E0.09288
G1 X180.057 Y160.082 E0.09324
G1 X178.795 Y161.442 E0.09361
G1 X177.511 Y162.759 E0.09286
G1 X176.190 Y164.050 E0.09324
G1 X174.832 Y165.313 E0.09363
G1 X173.454 Y166.533 E0.09289
G1 X172.208 Y167.585 E0.08230
G1 X170.940 Y168.609 E0.08228
G1 X169.651 Y169.606 E0.08228
G1 X168.267 Y170.628 E0.08685
G1 X168.176 Y170.634 E0.00460
; printing object 5_TestaBase.stl id:0 copy 0
G1 X168.124 Y169.704 F10800.000
;TYPE:External perimeter
G1 F1200.000
G1 X136.075 Y151.201 E1.86804
G1 X133.398 Y150.149 E0.14522
G1 X130.535 Y150.113 E0.14453
G1 X119.465 Y150.113 E0.55878
G1 X116.602 Y150.149 E0.14453
G1 X113.925 Y151.201 E0.14522
G1 X81.876 Y169.704 E1.86804
G1 X80.852 Y168.947 E0.06430
G1 X79.576 Y167.961 E0.08137
G1 X78.322 Y166.948 E0.08137
G1 X77.091 Y165.908 E0.08135
G1 X75.722 Y164.697 E0.09226
G1 X74.385 Y163.453 E0.09222
G1 X73.058 Y162.156 E0.09364
G1 X71.803 Y160.868 E0.09079
G1 X70.560 Y159.529 E0.09221
G1 X69.351 Y158.160 E0.09222
G1 X68.175 Y156.761 E0.09223
G1 X67.035 Y155.334 E0.09222
G1 X65.487 Y153.276 E0.12998
G1 X64.013 Y151.166 E0.12995
G1 X62.612 Y149.006 E0.12994
G1 X61.287 Y146.799 E0.12993
G1 X60.239 Y144.919 E0.10865
G1 X59.245 Y143.009 E0.10872
G1 X58.586 Y141.664 E0.07560
G1 X57.955 Y140.305 E0.07565
G1 X56.950 Y137.971 E0.12826
G1 X93.726 Y116.739 E2.14357
G1 X96.013 Y115.055 E0.14337
G1 X97.495 Y112.648 E0.14268
G1 X100.254 Y107.869 E0.27855
G1 X100.362 Y107.502 E0.01931
G1 X105.029 Y74.364 E1.68928
G1 X105.029 Y46.630 E1.40000
G1 X105.044 Y46.260 E0.01869
G1 X105.084 Y45.922 E0.01714
G1 X105.149 Y45.594 E0.01692
G1 X105.244 Y45.251 E0.01793
G1 X105.367 Y44.914 E0.01811
G1 X105.515 Y44.593 E0.01783
G1 X105.680 Y44.297 E0.01712
G1 X105.881 Y43.994 E0.01837
G1 X106.097 Y43.720 E0.01759
G1 X106.326 Y43.470 E0.01712
G1 X106.600 Y43.216 E0.01885
G1 X106.865 Y43.007 E0.01701
G1 X107.159 Y42.810 E0.01789
G1 X107.473 Y42.634 E0.01818
G1 X107.781 Y42.491 E0.01713
G1 X108.105 Y42.371 E0.01747
G1 X108.814 Y42.181 E0.03702
G1 X111.088 Y41.662 E0.11774
G1 X112.645 Y41.353 E0.08011
G1 X114.929 Y40.968 E0.11697
G1 X117.242 Y40.657 E0.11778
G1 X119.548 Y40.427 E0.11697
G1 X121.114 Y40.316 E0.07928
G1 X123.430 Y40.217 E0.11700
G1 X125.014 Y40.195 E0.07998
G1 X127.331 Y40.241 E0.11698
G1 X129.661 Y40.366 E0.11778
G1 X131.969 Y40.570 E0.11697
G1 X133.549 Y40.754 E0.08026
G1 X135.823 Y41.086 E0.11604
G1 X137.370 Y41.356 E0.07928
G1 X139.642 Y41.820 E0.11703
G1 X141.185 Y42.181 E0.08002
G1 X141.895 Y42.371 E0.03707
G1 X142.219 Y42.491 E0.01747
G1 X142.527 Y42.634 E0.01713
G1 X142.841 Y42.810 E0.01818
G1 X143.135 Y43.007 E0.01789
G1 X143.400 Y43.216 E0.01701
G1 X143.674 Y43.470 E0.01885
G1 X143.903 Y43.720 E0.01712
G1 X144.119 Y43.994 E0.01759
G1 X144.320 Y44.297 E0.01837
G1 X144.485 Y44.593 E0.01712
G1 X144.633 Y44.914 E0.01783
G1 X144.756 Y45.251 E0.01811
G1 X144.851 Y45.594 E0.01793
G1 X144.916 Y45.922 E0.01692
G1 X144.956 Y46.260 E0.01714
G1 X144.971 Y46.630 E0.01869
G1 X144.971 Y74.364 E1.40000
G1 X149.638 Y107.502 E1.68928
M73 Q0 S169
G1 X149.746 Y107.869 E0.01931
G1 X152.505 Y112.648 E0.27855
G1 X153.987 Y115.055 E0.14268
G1 X156.274 Y116.739 E0.14337
G1 X193.050 Y137.971 E2.14357
G1 X192.045 Y140.305 E0.12826
G1 X191.414 Y141.664 E0.07565
G1 X190.755 Y143.009 E0.07560
G1 X189.761 Y144.919 E0.10872
G1 X188.713 Y146.799 E0.10865
G1 X187.388 Y149.006 E0.12993
G1 X185.987 Y151.166 E0.12994
G1 X184.513 Y153.276 E0.12995
G1 X182.965 Y155.334 E0.12998
G1 X181.825 Y156.761 E0.09222
G1 X180.649 Y158.160 E0.09223
G1 X179.440 Y159.529 E0.09222
G1 X178.197 Y160.868 E0.09221
G1 X176.942 Y162.156 E0.09079
G1 X175.615 Y163.453 E0.09364
G1 X174.278 Y164.697 E0.09222
G1 X172.909 Y165.908 E0.09226
G1 X171.678 Y166.948 E0.08135
G1 X170.424 Y167.961 E0.08137
G1 X169.148 Y168.947 E0.08137
G1 X168.196 Y169.650 E0.05976
