; generated by PrusaSlicer 2.3.3+win64 on 2021-12-02 at 10:56:21 UTC

; 

; external perimeters extrusion width = 0.65mm
; perimeters extrusion width = 0.65mm
; infill extrusion width = 0.65mm
; solid infill extrusion width = 0.65mm
; top infill extrusion width = 0.60mm
; first layer extrusion width = 0.65mm

M73 P0 R23
M73 Q0 S23
M201 X1000 Y1000 Z200 E5000 ; sets maximum accelerations, mm/sec^2
M203 X200 Y200 Z12 E120 ; sets maximum feedrates, mm/sec
M204 P1250 R1250 T1250 ; sets acceleration (P, T) and retract acceleration (R), mm/sec^2
M205 X8.00 Y8.00 Z0.40 E4.50 ; sets the jerk limits, mm/sec
M205 S0 T0 ; sets the minimum extruding and travel feed rate, mm/sec
M107
;TYPE:Custom
M862.3 P "MK3S" ; printer model check
M862.1 P0.6 ; nozzle diameter check
M115 U3.10.0 ; tell printer latest fw version
G90 ; use absolute coordinates
M83 ; extruder relative mode
M104 S215 ; set extruder temp
M140 S60 ; set bed temp
M190 S60 ; wait for bed temp
M109 S215 ; wait for extruder temp
G28 W ; home all without mesh bed level
G80 ; mesh bed leveling
G1 Y-3.0 F1000.0 ; go outside print area
G92 E0.0
G1 X60.0 E9.0 F1000.0 ; intro line
G1 X100.0 E12.5 F1000.0 ; intro line
G92 E0.0
M221 S95
G21 ; set units to millimeters
G90 ; use absolute coordinates
M83 ; use relative distances for extrusion
M900 K0.04 ; Filament gcode LA 1.5
M900 K18 ; Filament gcode LA 1.0
;LAYER_CHANGE
;Z:0.2
;HEIGHT:0.2
;BEFORE_LAYER_CHANGE
G92 E0.0
;0.2


G1 E-0.80000 F2100.000
G1 Z0.400 F10800.000
;AFTER_LAYER_CHANGE
;0.2
G1 X114.261 Y95.762
G1 Z0.200
G1 E0.80000 F2100.000
M204 S1000
;TYPE:Skirt
;WIDTH:0.65
G1 F1200.000
G1 X114.718 Y95.256 E0.03442
G1 X115.199 Y94.773 E0.03443
G1 X115.703 Y94.313 E0.03443
G1 X116.228 Y93.878 E0.03442
G1 X116.785 Y93.460 E0.03516
G1 X117.350 Y93.078 E0.03442
G1 X117.933 Y92.724 E0.03443
G1 X118.532 Y92.398 E0.03444
G1 X119.146 Y92.101 E0.03442
G1 X119.774 Y91.834 E0.03441
G1 X120.413 Y91.598 E0.03441
G1 X121.077 Y91.389 E0.03515
G1 X121.737 Y91.216 E0.03443
G1 X122.405 Y91.075 E0.03444
G1 X123.085 Y90.965 E0.03480
G1 X123.763 Y90.889 E0.03442
G1 X124.443 Y90.846 E0.03442
G1 X125.125 Y90.836 E0.03443
G1 X125.807 Y90.858 E0.03444
G1 X126.487 Y90.913 E0.03442
G1 X127.163 Y91.001 E0.03441
G1 X127.834 Y91.122 E0.03441
G1 X128.498 Y91.274 E0.03442
G1 X129.152 Y91.457 E0.03426
G1 X129.802 Y91.674 E0.03461
G1 X130.438 Y91.921 E0.03442
G1 X131.061 Y92.198 E0.03441
G1 X131.670 Y92.504 E0.03442
G1 X132.264 Y92.840 E0.03443
G1 X132.841 Y93.203 E0.03443
G1 X133.406 Y93.600 E0.03486
G1 X134.166 Y94.201 E0.04886
G1 X134.681 Y94.660 E0.03486
G1 X135.168 Y95.138 E0.03444
G1 X135.631 Y95.639 E0.03443
G1 X136.069 Y96.162 E0.03442
G1 X136.486 Y96.711 E0.03479
G1 X136.871 Y97.273 E0.03443
G1 X137.230 Y97.854 E0.03443
G1 X137.559 Y98.451 E0.03443
G1 X137.860 Y99.063 E0.03442
G1 X138.136 Y99.702 E0.03514
G1 X138.376 Y100.340 E0.03441
G1 X138.585 Y100.989 E0.03443
G1 X138.762 Y101.648 E0.03443
G1 X138.908 Y102.314 E0.03443
G1 X139.023 Y103.001 E0.03516
G1 X139.103 Y103.678 E0.03442
G1 X139.150 Y104.359 E0.03442
G1 X139.164 Y105.041 E0.03443
G1 X139.146 Y105.722 E0.03443
G1 X139.094 Y106.411 E0.03486
G1 X138.964 Y107.370 E0.04886
G1 X138.833 Y108.048 E0.03486
G1 X138.670 Y108.710 E0.03443
G1 X138.475 Y109.364 E0.03444
G1 X138.250 Y110.008 E0.03442
G1 X137.993 Y110.640 E0.03442
G1 X137.707 Y111.258 E0.03442
G1 X137.391 Y111.863 E0.03442
G1 X137.046 Y112.451 E0.03443
G1 X136.674 Y113.022 E0.03442
G1 X136.274 Y113.575 E0.03442
G1 X135.848 Y114.107 E0.03442
G1 X135.397 Y114.619 E0.03443
G1 X134.922 Y115.109 E0.03443
G1 X134.424 Y115.574 E0.03443
G1 X133.898 Y116.020 E0.03479
G1 X133.358 Y116.436 E0.03442
G1 X132.798 Y116.825 E0.03442
G1 X132.219 Y117.187 E0.03444
G1 X131.624 Y117.520 E0.03443
G1 X131.014 Y117.824 E0.03441
G1 X130.377 Y118.104 E0.03514
G1 X129.740 Y118.348 E0.03441
G1 X129.092 Y118.561 E0.03443
G1 X128.435 Y118.742 E0.03443
G1 X127.769 Y118.891 E0.03442
G1 X127.097 Y119.009 E0.03443
G1 X126.406 Y119.095 E0.03516
G1 X125.726 Y119.146 E0.03443
G1 X125.044 Y119.165 E0.03444
G1 X124.362 Y119.150 E0.03443
G1 X123.673 Y119.102 E0.03485
G1 X122.713 Y118.979 E0.04886
G1 X122.035 Y118.851 E0.03486
G1 X121.371 Y118.692 E0.03444
G1 X120.716 Y118.502 E0.03443
G1 X120.072 Y118.280 E0.03442
G1 X119.438 Y118.027 E0.03441
G1 X118.818 Y117.745 E0.03442
G1 X118.212 Y117.432 E0.03443
G1 X117.621 Y117.091 E0.03443
G1 X117.036 Y116.714 E0.03515
G1 X116.481 Y116.317 E0.03442
G1 X115.940 Y115.889 E0.03481
G1 X115.427 Y115.440 E0.03443
G1 X114.935 Y114.968 E0.03442
G1 X114.467 Y114.472 E0.03443
G1 X114.024 Y113.954 E0.03442
G1 X113.605 Y113.415 E0.03442
G1 X113.214 Y112.857 E0.03442
G1 X112.849 Y112.280 E0.03443
G1 X112.506 Y111.674 E0.03517
G1 X112.199 Y111.065 E0.03442
G1 X111.922 Y110.442 E0.03443
G1 X111.675 Y109.806 E0.03442
G1 X111.459 Y109.160 E0.03442
G1 X111.275 Y108.503 E0.03443
G1 X111.120 Y107.830 E0.03487
G1 X110.960 Y106.875 E0.04887
G1 X110.885 Y106.189 E0.03486
G1 X110.844 Y105.508 E0.03443
G1 X110.836 Y104.826 E0.03442
G1 X110.861 Y104.144 E0.03442
G1 X110.920 Y103.450 E0.03518
G1 X111.012 Y102.767 E0.03481
G1 X111.136 Y102.096 E0.03443
G1 X111.292 Y101.432 E0.03442
G1 X111.483 Y100.763 E0.03515
G1 X111.703 Y100.117 E0.03444
G1 X111.960 Y99.468 E0.03521
G1 X112.234 Y98.861 E0.03362
G1 X112.544 Y98.254 E0.03442
G1 X112.884 Y97.662 E0.03445
G1 X113.264 Y97.068 E0.03561
G1 X113.824 Y96.296 E0.04813
G1 X114.204 Y95.832 E0.03029
G1 X114.674 Y96.217 F10800.000
G1 F1200.000
G1 X115.164 Y95.669 E0.03710
G1 X115.624 Y95.206 E0.03295
G1 X116.107 Y94.766 E0.03295
G1 X116.609 Y94.350 E0.03294
G1 X117.143 Y93.951 E0.03367
G1 X117.684 Y93.585 E0.03294
G1 X118.242 Y93.246 E0.03295
G1 X118.816 Y92.935 E0.03296
G1 X119.403 Y92.651 E0.03295
G1 X120.004 Y92.396 E0.03294
G1 X120.616 Y92.170 E0.03294
G1 X121.239 Y91.974 E0.03295
G1 X121.870 Y91.808 E0.03296
G1 X122.509 Y91.673 E0.03296
G1 X123.161 Y91.567 E0.03332
G1 X123.809 Y91.494 E0.03294
G1 X124.460 Y91.453 E0.03295
G1 X125.113 Y91.443 E0.03295
G1 X125.766 Y91.464 E0.03296
G1 X126.416 Y91.516 E0.03295
G1 X127.063 Y91.600 E0.03294
G1 X127.706 Y91.715 E0.03294
G1 X128.342 Y91.861 E0.03295
G1 X128.967 Y92.036 E0.03278
G1 X129.590 Y92.243 E0.03313
G1 X130.199 Y92.479 E0.03294
G1 X130.795 Y92.743 E0.03294
G1 X131.378 Y93.036 E0.03295
G1 X131.947 Y93.357 E0.03295
G1 X132.499 Y93.705 E0.03295
G1 X133.037 Y94.081 E0.03313
G1 X133.782 Y94.671 E0.04795
G1 X134.271 Y95.108 E0.03313
G1 X134.737 Y95.566 E0.03295
G1 X135.179 Y96.045 E0.03295
G1 X135.599 Y96.546 E0.03294
G1 X135.997 Y97.072 E0.03331
G1 X136.366 Y97.610 E0.03295
G1 X136.709 Y98.166 E0.03296
G1 X137.024 Y98.737 E0.03295
G1 X137.312 Y99.323 E0.03294
G1 X137.571 Y99.922 E0.03294
G1 X137.800 Y100.533 E0.03294
G1 X138.001 Y101.154 E0.03295
G1 X138.171 Y101.785 E0.03296
G1 X138.310 Y102.422 E0.03295
G1 X138.421 Y103.080 E0.03367
G1 X138.498 Y103.728 E0.03294
G1 X138.543 Y104.379 E0.03295
G1 X138.557 Y105.032 E0.03296
G1 X138.540 Y105.684 E0.03295
G1 X138.491 Y106.339 E0.03313
G1 X138.364 Y107.280 E0.04795
G1 X138.238 Y107.924 E0.03313
G1 X138.082 Y108.558 E0.03295
G1 X137.896 Y109.184 E0.03296
G1 X137.679 Y109.800 E0.03295
G1 X137.434 Y110.404 E0.03294
M73 Q1 S23
G1 X137.159 Y110.996 E0.03294
G1 X136.857 Y111.575 E0.03295
G1 X136.526 Y112.138 E0.03295
G1 X136.169 Y112.684 E0.03295
G1 X135.787 Y113.213 E0.03294
G1 X135.379 Y113.722 E0.03294
G1 X134.947 Y114.212 E0.03295
G1 X134.492 Y114.680 E0.03295
G1 X134.015 Y115.126 E0.03295
G1 X133.512 Y115.552 E0.03331
M73 P1 R23
G1 X132.994 Y115.950 E0.03295
G1 X132.458 Y116.322 E0.03295
G1 X131.904 Y116.668 E0.03296
G1 X131.334 Y116.987 E0.03295
G1 X130.750 Y117.278 E0.03294
G1 X130.153 Y117.540 E0.03294
G1 X129.543 Y117.774 E0.03294
G1 X128.923 Y117.978 E0.03295
G1 X128.294 Y118.151 E0.03295
G1 X127.657 Y118.295 E0.03295
G1 X127.014 Y118.407 E0.03294
G1 X126.352 Y118.490 E0.03367
G1 X125.702 Y118.540 E0.03295
G1 X125.049 Y118.558 E0.03296
G1 X124.397 Y118.544 E0.03295
G1 X123.742 Y118.499 E0.03313
G1 X122.800 Y118.378 E0.04795
G1 X122.155 Y118.256 E0.03313
G1 X121.520 Y118.104 E0.03295
G1 X120.893 Y117.921 E0.03295
G1 X120.276 Y117.708 E0.03295
G1 X119.670 Y117.466 E0.03294
G1 X119.077 Y117.195 E0.03294
G1 X118.496 Y116.896 E0.03295
G1 X117.931 Y116.569 E0.03295
G1 X117.383 Y116.216 E0.03295
G1 X116.852 Y115.836 E0.03295
G1 X116.334 Y115.427 E0.03332
G1 X115.842 Y114.998 E0.03295
G1 X115.372 Y114.545 E0.03295
G1 X114.923 Y114.071 E0.03295
G1 X114.498 Y113.575 E0.03295
G1 X114.098 Y113.060 E0.03295
G1 X113.723 Y112.526 E0.03295
G1 X113.373 Y111.975 E0.03295
G1 X113.044 Y111.394 E0.03368
G1 X112.751 Y110.811 E0.03294
G1 X112.485 Y110.215 E0.03295
G1 X112.249 Y109.607 E0.03295
G1 X112.042 Y108.988 E0.03295
G1 X111.865 Y108.360 E0.03295
G1 X111.718 Y107.720 E0.03313
G1 X111.560 Y106.783 E0.04795
G1 X111.489 Y106.131 E0.03313
G1 X111.450 Y105.479 E0.03295
G1 X111.443 Y104.827 E0.03295
G1 X111.467 Y104.174 E0.03294
G1 X111.524 Y103.510 E0.03368
G1 X111.612 Y102.855 E0.03331
G1 X111.731 Y102.214 E0.03295
G1 X111.881 Y101.578 E0.03295
G1 X112.061 Y100.951 E0.03294
G1 X112.271 Y100.333 E0.03295
G1 X112.516 Y99.711 E0.03373
G1 X112.778 Y99.131 E0.03216
G1 X113.075 Y98.549 E0.03295
G1 X113.399 Y97.983 E0.03295
G1 X113.761 Y97.417 E0.03387
G1 X114.310 Y96.660 E0.04722
G1 X114.617 Y96.286 E0.02441
G1 X115.086 Y96.672 F10800.000
G1 F1200.000
G1 X115.609 Y96.082 E0.03979
G1 X116.049 Y95.640 E0.03147
G1 X116.510 Y95.220 E0.03148
G1 X116.990 Y94.823 E0.03147
G1 X117.489 Y94.449 E0.03147
G1 X118.006 Y94.100 E0.03147
G1 X118.539 Y93.776 E0.03147
G1 X119.086 Y93.478 E0.03148
G1 X119.648 Y93.207 E0.03147
G1 X120.222 Y92.963 E0.03147
G1 X120.806 Y92.747 E0.03147
G1 X121.401 Y92.559 E0.03147
G1 X122.004 Y92.400 E0.03148
G1 X122.614 Y92.271 E0.03147
G1 X123.236 Y92.170 E0.03184
G1 X123.856 Y92.100 E0.03147
G1 X124.478 Y92.060 E0.03147
G1 X125.101 Y92.050 E0.03147
G1 X125.724 Y92.069 E0.03148
G1 X126.346 Y92.119 E0.03147
G1 X126.964 Y92.199 E0.03147
G1 X127.578 Y92.309 E0.03147
G1 X128.186 Y92.447 E0.03147
G1 X128.783 Y92.614 E0.03130
G1 X129.378 Y92.812 E0.03165
G1 X129.960 Y93.037 E0.03147
G1 X130.529 Y93.289 E0.03147
G1 X131.087 Y93.569 E0.03147
G1 X131.630 Y93.875 E0.03148
G1 X132.158 Y94.207 E0.03147
G1 X132.667 Y94.563 E0.03138
G1 X133.398 Y95.141 E0.04702
G1 X133.861 Y95.556 E0.03138
G1 X134.305 Y95.993 E0.03148
G1 X134.728 Y96.451 E0.03147
G1 X135.128 Y96.930 E0.03147
G1 X135.509 Y97.432 E0.03183
G1 X135.861 Y97.947 E0.03147
G1 X136.188 Y98.478 E0.03148
G1 X136.489 Y99.024 E0.03147
G1 X136.763 Y99.584 E0.03147
G1 X137.010 Y100.156 E0.03147
G1 X137.229 Y100.740 E0.03147
G1 X137.420 Y101.333 E0.03148
G1 X137.583 Y101.935 E0.03148
G1 X137.715 Y102.544 E0.03147
G1 X137.819 Y103.159 E0.03147
G1 X137.893 Y103.778 E0.03147
G1 X137.936 Y104.400 E0.03147
G1 X137.950 Y105.024 E0.03148
G1 X137.934 Y105.647 E0.03147
G1 X137.888 Y106.267 E0.03138
G1 X137.764 Y107.190 E0.04702
G1 X137.644 Y107.800 E0.03138
G1 X137.495 Y108.405 E0.03147
G1 X137.316 Y109.003 E0.03148
G1 X137.109 Y109.591 E0.03147
G1 X136.874 Y110.168 E0.03147
G1 X136.612 Y110.734 E0.03147
G1 X136.322 Y111.286 E0.03147
G1 X136.007 Y111.824 E0.03148
G1 X135.665 Y112.346 E0.03147
G1 X135.299 Y112.850 E0.03147
G1 X134.910 Y113.337 E0.03147
G1 X134.497 Y113.804 E0.03147
G1 X134.062 Y114.251 E0.03148
G1 X133.606 Y114.677 E0.03147
G1 X133.125 Y115.084 E0.03183
G1 X132.630 Y115.464 E0.03147
G1 X132.118 Y115.819 E0.03147
G1 X131.589 Y116.149 E0.03148
G1 X131.045 Y116.453 E0.03147
G1 X130.487 Y116.731 E0.03147
G1 X129.916 Y116.981 E0.03147
G1 X129.333 Y117.204 E0.03147
G1 X128.741 Y117.398 E0.03148
G1 X128.140 Y117.564 E0.03148
G1 X127.532 Y117.701 E0.03147
G1 X126.917 Y117.808 E0.03147
G1 X126.299 Y117.885 E0.03147
G1 X125.677 Y117.933 E0.03147
G1 X125.054 Y117.951 E0.03148
G1 X124.430 Y117.938 E0.03147
G1 X123.810 Y117.896 E0.03138
G1 X122.886 Y117.777 E0.04702
G1 X122.276 Y117.661 E0.03138
G1 X121.669 Y117.515 E0.03148
G1 X121.071 Y117.340 E0.03147
G1 X120.482 Y117.137 E0.03147
G1 X119.903 Y116.905 E0.03147
G1 X119.336 Y116.646 E0.03147
G1 X118.782 Y116.360 E0.03147
G1 X118.242 Y116.048 E0.03148
G1 X117.718 Y115.710 E0.03147
G1 X117.211 Y115.347 E0.03147
G1 X116.717 Y114.955 E0.03184
G1 X116.247 Y114.545 E0.03147
G1 X115.798 Y114.113 E0.03147
G1 X115.370 Y113.660 E0.03147
G1 X114.964 Y113.186 E0.03147
G1 X114.582 Y112.694 E0.03147
G1 X114.224 Y112.183 E0.03147
G1 X113.891 Y111.656 E0.03147
G1 X113.583 Y111.114 E0.03147
G1 X113.302 Y110.557 E0.03147
G1 X113.048 Y109.988 E0.03147
G1 X112.822 Y109.407 E0.03147
G1 X112.624 Y108.816 E0.03147
G1 X112.455 Y108.216 E0.03147
G1 X112.315 Y107.610 E0.03138
G1 X112.160 Y106.691 E0.04702
G1 X112.093 Y106.073 E0.03138
G1 X112.057 Y105.451 E0.03147
G1 X112.050 Y104.827 E0.03147
G1 X112.073 Y104.204 E0.03147
G1 X112.127 Y103.583 E0.03147
G1 X112.211 Y102.958 E0.03184
G1 X112.324 Y102.345 E0.03147
G1 X112.466 Y101.738 E0.03147
G1 X112.638 Y101.139 E0.03147
G1 X112.838 Y100.548 E0.03147
G1 X113.072 Y99.954 E0.03225
G1 X113.322 Y99.400 E0.03070
G1 X113.605 Y98.844 E0.03148
G1 X113.915 Y98.303 E0.03147
G1 X114.257 Y97.767 E0.03211
G1 X114.796 Y97.025 E0.04630
G1 X115.029 Y96.741 E0.01851
; printing object 8_PuleggiaR.stl id:0 copy 0
G1 X115.514 Y97.140 F10800.000
;TYPE:External perimeter
G1 F1200.000
G1 X116.067 Y96.512 E0.04222
G1 X116.486 Y96.092 E0.02994
G1 X116.924 Y95.693 E0.02994
G1 X117.382 Y95.315 E0.02995
G1 X117.857 Y94.959 E0.02995
G1 X118.348 Y94.627 E0.02995
G1 X118.855 Y94.319 E0.02994
G1 X119.376 Y94.036 E0.02994
G1 X119.911 Y93.778 E0.02994
G1 X120.457 Y93.546 E0.02995
G1 X121.013 Y93.341 E0.02995
G1 X121.579 Y93.162 E0.02995
G1 X122.153 Y93.011 E0.02994
G1 X122.733 Y92.888 E0.02994
G1 X123.318 Y92.793 E0.02995
G1 X123.908 Y92.726 E0.02995
G1 X124.498 Y92.688 E0.02985
G1 X125.360 Y92.683 E0.04352
G1 X125.982 Y92.717 E0.03144
G1 X126.572 Y92.779 E0.02993
G1 X127.158 Y92.868 E0.02995
G1 X127.740 Y92.986 E0.02995
G1 X128.315 Y93.132 E0.02994
G1 X128.882 Y93.305 E0.02994
G1 X129.440 Y93.506 E0.02994
G1 X129.988 Y93.733 E0.02995
G1 X130.525 Y93.986 E0.02995
G1 X131.049 Y94.265 E0.02994
G1 X131.558 Y94.568 E0.02994
G1 X132.053 Y94.896 E0.02994
G1 X132.531 Y95.247 E0.02995
G1 X132.991 Y95.621 E0.02995
G1 X133.434 Y96.016 E0.02994
G1 X133.856 Y96.433 E0.02994
G1 X134.257 Y96.868 E0.02985
G1 X134.803 Y97.535 E0.04352
G1 X135.168 Y98.040 E0.03145
G1 X135.491 Y98.537 E0.02993
G1 X135.790 Y99.049 E0.02994
G1 X136.063 Y99.575 E0.02994
G1 X136.312 Y100.114 E0.02995
G1 X136.534 Y100.664 E0.02995
G1 X136.729 Y101.225 E0.02994
G1 X136.898 Y101.796 E0.03010
G1 X137.038 Y102.370 E0.02979
G1 X137.150 Y102.952 E0.02995
G1 X137.235 Y103.537 E0.02981
G1 X137.291 Y104.130 E0.03008
G1 X137.319 Y104.722 E0.02994
G1 X137.318 Y105.316 E0.02994
G1 X137.288 Y105.908 E0.02994
G1 X137.230 Y106.498 E0.02995
G1 X137.144 Y107.085 E0.02995
G1 X137.029 Y107.668 E0.02995
G1 X136.887 Y108.243 E0.02994
G1 X136.717 Y108.812 E0.02994
G1 X136.520 Y109.371 E0.02994
G1 X136.296 Y109.921 E0.02995
G1 X136.047 Y110.459 E0.02995
G1 X135.771 Y110.984 E0.02994
G1 X135.471 Y111.496 E0.02994
G1 X135.146 Y111.992 E0.02994
G1 X134.798 Y112.472 E0.02995
G1 X134.427 Y112.935 E0.02995
G1 X134.034 Y113.380 E0.02994
G1 X133.620 Y113.805 E0.02994
G1 X133.188 Y114.208 E0.02985
G1 X132.499 Y114.777 E0.04511
G1 X132.021 Y115.126 E0.02985
G1 X131.526 Y115.452 E0.02994
G1 X131.015 Y115.754 E0.02994
G1 X130.490 Y116.031 E0.02995
G1 X129.953 Y116.282 E0.02995
G1 X129.404 Y116.508 E0.02995
G1 X128.845 Y116.707 E0.02995
G1 X128.278 Y116.878 E0.02994
G1 X127.702 Y117.022 E0.02994
G1 X127.120 Y117.138 E0.02995
G1 X126.534 Y117.226 E0.02995
G1 X125.944 Y117.286 E0.02994
G1 X125.351 Y117.317 E0.02994
G1 X124.758 Y117.320 E0.02994
G1 X124.167 Y117.294 E0.02985
G1 X123.278 Y117.201 E0.04511
G1 X122.695 Y117.105 E0.02985
G1 X122.115 Y116.980 E0.02994
G1 X121.542 Y116.827 E0.02994
G1 X120.977 Y116.647 E0.02994
G1 X120.421 Y116.440 E0.02995
G1 X119.876 Y116.206 E0.02995
G1 X119.342 Y115.947 E0.02994
G1 X118.822 Y115.662 E0.02994
G1 X118.316 Y115.352 E0.02994
G1 X117.825 Y115.018 E0.02995
