; generated by PrusaSlicer 2.3.3+win64 on 2021-12-02 at 11:04:37 UTC

; 

; external perimeters extrusion width = 0.65mm
; perimeters extrusion width = 0.65mm
; infill extrusion width = 0.65mm
; solid infill extrusion width = 0.65mm
; top infill extrusion width = 0.60mm
; first layer extrusion width = 0.65mm

M73 P0 R15
M73 Q0 S15
M201 X1000 Y1000 Z200 E5000 ; sets maximum accelerations, mm/sec^2
M203 X200 Y200 Z12 E120 ; sets maximum feedrates, mm/sec
M204 P1250 R1250 T1250 ; sets acceleration (P, T) and retract acceleration (R), mm/sec^2
M205 X8.00 Y8.00 Z0.40 E4.50 ; sets the jerk limits, mm/sec
M205 S0 T0 ; sets the minimum extruding and travel feed rate, mm/sec
M107
;TYPE:Custom
M862.3 P "MK3S" ; printer model check
M862.1 P0.6 ; nozzle diameter check
M115 U3.10.0 ; tell printer latest fw version
G90 ; use absolute coordinates
M83 ; extruder relative mode
M104 S215 ; set extruder temp
M140 S60 ; set bed temp
M190 S60 ; wait for bed temp
M109 S215 ; wait for extruder temp
G28 W ; home all without mesh bed level
G80 ; mesh bed leveling
G1 Y-3.0 F1000.0 ; go outside print area
G92 E0.0
G1 X60.0 E9.0 F1000.0 ; intro line
M73 P0 R14
G1 X100.0 E12.5 F1000.0 ; intro line
G92 E0.0
M221 S95
G21 ; set units to millimeters
G90 ; use absolute coordinates
M83 ; use relative distances for extrusion
M900 K0.04 ; Filament gcode LA 1.5
M900 K18 ; Filament gcode LA 1.0
;LAYER_CHANGE
;Z:0.2
;HEIGHT:0.2
;BEFORE_LAYER_CHANGE
G92 E0.0
;0.2


G1 E-0.80000 F2100.000
G1 Z0.400 F10800.000
;AFTER_LAYER_CHANGE
;0.2
G1 X115.999 Y97.590
M73 Q0 S14
G1 Z0.200
G1 E0.80000 F2100.000
M204 S1000
;TYPE:Skirt
;WIDTH:0.65
G1 F1200.000
G1 X116.373 Y97.157 E0.02887
G1 X116.769 Y96.744 E0.02888
G1 X117.184 Y96.350 E0.02887
G1 X117.617 Y95.978 E0.02887
G1 X118.069 Y95.627 E0.02887
G1 X118.537 Y95.298 E0.02888
G1 X119.021 Y94.993 E0.02887
G1 X119.519 Y94.712 E0.02887
G1 X120.031 Y94.456 E0.02887
G1 X120.554 Y94.225 E0.02888
G1 X121.088 Y94.021 E0.02887
G1 X121.631 Y93.842 E0.02887
G1 X122.183 Y93.691 E0.02887
G1 X122.741 Y93.567 E0.02887
G1 X123.305 Y93.470 E0.02887
G1 X123.873 Y93.401 E0.02887
G1 X124.443 Y93.360 E0.02887
G1 X125.015 Y93.347 E0.02887
G1 X125.587 Y93.362 E0.02887
G1 X126.157 Y93.405 E0.02887
G1 X126.725 Y93.477 E0.02887
G1 X127.288 Y93.576 E0.02888
G1 X127.846 Y93.702 E0.02887
G1 X128.397 Y93.856 E0.02887
G1 X128.939 Y94.036 E0.02887
G1 X129.473 Y94.243 E0.02887
G1 X129.995 Y94.476 E0.02888
G1 X130.505 Y94.734 E0.02887
G1 X131.003 Y95.017 E0.02887
G1 X131.485 Y95.324 E0.02888
G1 X131.952 Y95.654 E0.02887
G1 X132.402 Y96.007 E0.02887
G1 X132.835 Y96.381 E0.02887
G1 X133.248 Y96.776 E0.02888
G1 X133.642 Y97.192 E0.02887
G1 X134.014 Y97.625 E0.02887
G1 X134.365 Y98.077 E0.02887
G1 X134.694 Y98.545 E0.02888
G1 X134.999 Y99.029 E0.02888
G1 X135.280 Y99.527 E0.02887
G1 X135.536 Y100.038 E0.02887
G1 X135.767 Y100.562 E0.02887
G1 X135.972 Y101.096 E0.02887
G1 X136.150 Y101.639 E0.02887
G1 X136.301 Y102.191 E0.02887
M73 Q1 S14
G1 X136.426 Y102.749 E0.02888
G1 X136.522 Y103.313 E0.02887
G1 X136.591 Y103.881 E0.02887
G1 X136.632 Y104.451 E0.02887
G1 X136.645 Y105.023 E0.02888
G1 X136.630 Y105.595 E0.02887
G1 X136.587 Y106.165 E0.02887
G1 X136.516 Y106.732 E0.02887
G1 X136.417 Y107.296 E0.02888
G1 X136.290 Y107.854 E0.02887
G1 X136.137 Y108.405 E0.02887
M73 P1 R14
G1 X135.956 Y108.947 E0.02887
G1 X135.749 Y109.481 E0.02888
G1 X135.516 Y110.003 E0.02887
G1 X135.258 Y110.513 E0.02887
G1 X134.975 Y111.010 E0.02887
G1 X134.668 Y111.493 E0.02888
G1 X134.338 Y111.960 E0.02887
G1 X133.985 Y112.410 E0.02887
G1 X133.611 Y112.843 E0.02887
G1 X133.216 Y113.256 E0.02888
G1 X132.801 Y113.650 E0.02887
G1 X132.367 Y114.022 E0.02887
G1 X131.915 Y114.373 E0.02887
G1 X131.447 Y114.702 E0.02888
G1 X130.963 Y115.007 E0.02887
G1 X130.465 Y115.288 E0.02887
G1 X129.954 Y115.544 E0.02887
G1 X129.430 Y115.775 E0.02887
G1 X128.896 Y115.979 E0.02888
G1 X128.353 Y116.158 E0.02887
G1 X127.801 Y116.309 E0.02887
G1 X127.243 Y116.433 E0.02888
G1 X126.679 Y116.530 E0.02887
G1 X126.111 Y116.599 E0.02887
G1 X125.541 Y116.640 E0.02887
G1 X124.969 Y116.653 E0.02888
G1 X124.397 Y116.638 E0.02887
G1 X123.827 Y116.594 E0.02887
G1 X123.260 Y116.523 E0.02887
G1 X122.696 Y116.424 E0.02888
G1 X122.138 Y116.298 E0.02887
G1 X121.587 Y116.144 E0.02887
G1 X121.045 Y115.964 E0.02887
G1 X120.511 Y115.757 E0.02887
G1 X119.989 Y115.524 E0.02887
G1 X119.479 Y115.266 E0.02887
G1 X118.982 Y114.983 E0.02887
G1 X118.499 Y114.676 E0.02888
G1 X118.032 Y114.346 E0.02887
G1 X117.582 Y113.993 E0.02887
G1 X117.149 Y113.619 E0.02887
G1 X116.736 Y113.224 E0.02888
G1 X116.342 Y112.809 E0.02887
G1 X115.970 Y112.375 E0.02887
G1 X115.619 Y111.923 E0.02887
G1 X115.290 Y111.455 E0.02888
G1 X114.985 Y110.971 E0.02887
G1 X114.704 Y110.473 E0.02887
G1 X114.448 Y109.961 E0.02887
G1 X114.217 Y109.438 E0.02888
G1 X114.013 Y108.904 E0.02887
G1 X113.834 Y108.361 E0.02887
G1 X113.683 Y107.809 E0.02887
G1 X113.559 Y107.251 E0.02888
G1 X113.462 Y106.687 E0.02887
G1 X113.393 Y106.119 E0.02887
G1 X113.352 Y105.549 E0.02887
G1 X113.339 Y104.977 E0.02888
G1 X113.354 Y104.405 E0.02887
G1 X113.398 Y103.835 E0.02887
G1 X113.469 Y103.267 E0.02887
G1 X113.568 Y102.704 E0.02888
G1 X113.694 Y102.146 E0.02887
G1 X113.848 Y101.595 E0.02887
G1 X114.028 Y101.053 E0.02887
G1 X114.235 Y100.519 E0.02888
G1 X114.468 Y99.997 E0.02887
G1 X114.726 Y99.487 E0.02887
G1 X115.009 Y98.990 E0.02887
G1 X115.316 Y98.507 E0.02888
G1 X115.646 Y98.040 E0.02887
G1 X115.943 Y97.661 E0.02432
G1 X116.421 Y98.035 F10800.000
G1 F1200.000
G1 X116.818 Y97.571 E0.03079
G1 X117.192 Y97.179 E0.02737
G1 X117.585 Y96.806 E0.02737
G1 X117.996 Y96.452 E0.02736
G1 X118.424 Y96.119 E0.02737
G1 X118.868 Y95.807 E0.02737
G1 X119.326 Y95.518 E0.02737
G1 X119.798 Y95.251 E0.02737
G1 X120.283 Y95.008 E0.02737
G1 X120.779 Y94.789 E0.02737
G1 X121.285 Y94.595 E0.02736
G1 X121.800 Y94.426 E0.02737
G1 X122.323 Y94.282 E0.02737
G1 X122.852 Y94.164 E0.02737
G1 X123.386 Y94.072 E0.02737
G1 X123.924 Y94.006 E0.02737
G1 X124.465 Y93.967 E0.02737
G1 X125.007 Y93.954 E0.02737
G1 X125.549 Y93.968 E0.02737
G1 X126.090 Y94.009 E0.02737
G1 X126.628 Y94.076 E0.02736
G1 X127.162 Y94.169 E0.02737
G1 X127.691 Y94.289 E0.02737
G1 X128.213 Y94.434 E0.02737
G1 X128.727 Y94.605 E0.02737
G1 X129.233 Y94.801 E0.02737
G1 X129.728 Y95.021 E0.02737
G1 X130.212 Y95.266 E0.02736
G1 X130.684 Y95.533 E0.02737
G1 X131.141 Y95.824 E0.02737
G1 X131.584 Y96.137 E0.02737
G1 X132.011 Y96.471 E0.02737
G1 X132.421 Y96.826 E0.02737
G1 X132.813 Y97.200 E0.02737
G1 X133.187 Y97.593 E0.02737
G1 X133.540 Y98.004 E0.02736
G1 X133.873 Y98.432 E0.02736
G1 X134.185 Y98.876 E0.02737
G1 X134.474 Y99.334 E0.02737
G1 X134.741 Y99.806 E0.02736
G1 X134.984 Y100.291 E0.02736
G1 X135.203 Y100.787 E0.02737
G1 X135.397 Y101.293 E0.02737
G1 X135.567 Y101.808 E0.02737
G1 X135.711 Y102.331 E0.02737
G1 X135.829 Y102.860 E0.02737
G1 X135.921 Y103.394 E0.02736
G1 X135.986 Y103.932 E0.02736
G1 X136.025 Y104.473 E0.02737
G1 X136.038 Y105.015 E0.02737
G1 X136.024 Y105.557 E0.02737
G1 X135.983 Y106.097 E0.02737
G1 X135.916 Y106.635 E0.02737
G1 X135.823 Y107.170 E0.02737
G1 X135.703 Y107.698 E0.02737
G1 X135.558 Y108.221 E0.02736
G1 X135.387 Y108.735 E0.02737
G1 X135.191 Y109.241 E0.02737
G1 X134.971 Y109.736 E0.02737
G1 X134.727 Y110.220 E0.02737
G1 X134.459 Y110.691 E0.02737
G1 X134.168 Y111.149 E0.02737
G1 X133.855 Y111.592 E0.02736
G1 X133.521 Y112.019 E0.02737
G1 X133.167 Y112.429 E0.02737
G1 X132.792 Y112.821 E0.02737
G1 X132.399 Y113.194 E0.02736
G1 X131.988 Y113.548 E0.02736
G1 X131.560 Y113.881 E0.02737
G1 X131.116 Y114.193 E0.02737
G1 X130.658 Y114.482 E0.02737
G1 X130.186 Y114.749 E0.02736
G1 X129.701 Y114.992 E0.02736
G1 X129.205 Y115.211 E0.02737
G1 X128.699 Y115.405 E0.02737
G1 X128.184 Y115.574 E0.02736
G1 X127.662 Y115.718 E0.02737
G1 X127.132 Y115.836 E0.02737
G1 X126.598 Y115.928 E0.02737
G1 X126.060 Y115.994 E0.02736
G1 X125.519 Y116.033 E0.02737
G1 X124.977 Y116.046 E0.02737
G1 X124.435 Y116.032 E0.02736
G1 X123.895 Y115.991 E0.02737
G1 X123.357 Y115.924 E0.02737
G1 X122.822 Y115.831 E0.02737
G1 X122.294 Y115.711 E0.02737
G1 X121.771 Y115.566 E0.02736
G1 X121.257 Y115.395 E0.02737
G1 X120.751 Y115.199 E0.02737
G1 X120.256 Y114.979 E0.02737
G1 X119.772 Y114.734 E0.02737
G1 X119.301 Y114.467 E0.02737
G1 X118.843 Y114.176 E0.02737
G1 X118.400 Y113.863 E0.02736
G1 X117.973 Y113.529 E0.02736
G1 X117.563 Y113.174 E0.02737
G1 X117.171 Y112.800 E0.02737
G1 X116.798 Y112.407 E0.02737
G1 X116.444 Y111.996 E0.02737
G1 X116.111 Y111.568 E0.02737
G1 X115.800 Y111.124 E0.02737
G1 X115.510 Y110.666 E0.02737
G1 X115.244 Y110.194 E0.02736
G1 X115.000 Y109.709 E0.02736
G1 X114.781 Y109.213 E0.02737
G1 X114.587 Y108.707 E0.02737
G1 X114.418 Y108.192 E0.02737
G1 X114.274 Y107.669 E0.02737
G1 X114.156 Y107.140 E0.02737
G1 X114.064 Y106.606 E0.02737
G1 X113.998 Y106.068 E0.02736
G1 X113.959 Y105.527 E0.02737
G1 X113.946 Y104.985 E0.02737
G1 X113.960 Y104.443 E0.02737
G1 X114.001 Y103.902 E0.02737
G1 X114.068 Y103.365 E0.02737
G1 X114.161 Y102.830 E0.02737
G1 X114.281 Y102.302 E0.02737
G1 X114.426 Y101.779 E0.02737
G1 X114.597 Y101.265 E0.02737
G1 X114.793 Y100.759 E0.02737
G1 X115.013 Y100.264 E0.02737
G1 X115.258 Y99.780 E0.02737
G1 X115.525 Y99.309 E0.02737
G1 X115.816 Y98.851 E0.02737
G1 X116.366 Y98.105 E0.04675
G1 X116.844 Y98.479 F10800.000
G1 F1200.000
G1 X117.262 Y97.984 E0.03271
G1 X117.616 Y97.614 E0.02587
G1 X117.987 Y97.261 E0.02586
G1 X118.375 Y96.926 E0.02586
G1 X118.780 Y96.611 E0.02586
G1 X119.199 Y96.316 E0.02586
G1 X119.632 Y96.043 E0.02586
G1 X120.078 Y95.790 E0.02586
G1 X120.535 Y95.560 E0.02586
G1 X121.004 Y95.353 E0.02587
G1 X121.482 Y95.169 E0.02586
G1 X121.969 Y95.009 E0.02586
G1 X122.463 Y94.872 E0.02586
G1 X122.963 Y94.760 E0.02586
G1 X123.468 Y94.673 E0.02586
G1 X123.976 Y94.611 E0.02586
G1 X124.487 Y94.573 E0.02586
G1 X124.999 Y94.561 E0.02586
G1 X125.512 Y94.574 E0.02586
G1 X126.023 Y94.612 E0.02587
G1 X126.531 Y94.675 E0.02586
G1 X127.036 Y94.763 E0.02587
G1 X127.536 Y94.876 E0.02586
G1 X128.029 Y95.013 E0.02586
G1 X128.516 Y95.174 E0.02586
G1 X128.993 Y95.359 E0.02586
G1 X129.462 Y95.567 E0.02587
G1 X129.919 Y95.797 E0.02586
G1 X130.365 Y96.050 E0.02586
G1 X130.798 Y96.325 E0.02587
G1 X131.216 Y96.620 E0.02586
G1 X131.620 Y96.935 E0.02586
G1 X132.008 Y97.270 E0.02586
G1 X132.379 Y97.624 E0.02587
G1 X132.732 Y97.995 E0.02586
G1 X133.066 Y98.383 E0.02586
G1 X133.381 Y98.787 E0.02586
G1 X133.676 Y99.207 E0.02587
G1 X133.949 Y99.640 E0.02587
G1 X134.202 Y100.086 E0.02586
G1 X134.432 Y100.543 E0.02586
G1 X134.639 Y101.012 E0.02586
G1 X134.823 Y101.490 E0.02587
G1 X134.983 Y101.977 E0.02586
G1 X135.120 Y102.471 E0.02586
G1 X135.232 Y102.971 E0.02587
G1 X135.319 Y103.475 E0.02586
G1 X135.381 Y103.984 E0.02586
G1 X135.419 Y104.495 E0.02586
G1 X135.431 Y105.007 E0.02587
G1 X135.418 Y105.519 E0.02586
G1 X135.380 Y106.030 E0.02586
G1 X135.317 Y106.539 E0.02586
G1 X135.229 Y107.044 E0.02587
G1 X135.116 Y107.543 E0.02586
G1 X134.979 Y108.037 E0.02586
G1 X134.818 Y108.523 E0.02586
G1 X134.633 Y109.001 E0.02586
G1 X134.426 Y109.470 E0.02586
G1 X134.195 Y109.927 E0.02586
G1 X133.942 Y110.373 E0.02586
G1 X133.668 Y110.806 E0.02587
G1 X133.372 Y111.224 E0.02586
G1 X133.057 Y111.628 E0.02586
G1 X132.722 Y112.016 E0.02586
G1 X132.368 Y112.386 E0.02587
G1 X131.997 Y112.739 E0.02586
G1 X131.609 Y113.074 E0.02586
G1 X131.205 Y113.389 E0.02586
G1 X130.786 Y113.684 E0.02587
G1 X130.352 Y113.957 E0.02586
G1 X129.906 Y114.210 E0.02586
G1 X129.449 Y114.440 E0.02586
G1 X128.980 Y114.647 E0.02586
G1 X128.502 Y114.831 E0.02587
G1 X128.015 Y114.991 E0.02586
G1 X127.521 Y115.128 E0.02586
G1 X127.021 Y115.240 E0.02586
G1 X126.517 Y115.327 E0.02586
G1 X126.008 Y115.389 E0.02586
G1 X125.497 Y115.426 E0.02586
G1 X124.985 Y115.439 E0.02587
G1 X124.473 Y115.426 E0.02586
G1 X123.962 Y115.388 E0.02586
G1 X123.453 Y115.325 E0.02586
G1 X122.948 Y115.237 E0.02587
G1 X122.449 Y115.124 E0.02586
G1 X121.955 Y114.987 E0.02586
G1 X121.469 Y114.826 E0.02586
G1 X120.991 Y114.641 E0.02586
G1 X120.522 Y114.433 E0.02586
G1 X120.065 Y114.203 E0.02586
G1 X119.619 Y113.950 E0.02586
G1 X119.187 Y113.675 E0.02587
G1 X118.768 Y113.380 E0.02586
G1 X118.364 Y113.065 E0.02586
G1 X117.977 Y112.730 E0.02586
G1 X117.606 Y112.376 E0.02587
G1 X117.253 Y112.005 E0.02586
G1 X116.918 Y111.617 E0.02586
G1 X116.603 Y111.213 E0.02586
G1 X116.309 Y110.793 E0.02587
G1 X116.035 Y110.360 E0.02586
G1 X115.783 Y109.914 E0.02586
G1 X115.553 Y109.457 E0.02586
G1 X115.345 Y108.988 E0.02586
G1 X115.161 Y108.510 E0.02586
G1 X115.001 Y108.023 E0.02586
G1 X114.864 Y107.529 E0.02586
G1 X114.752 Y107.029 E0.02587
G1 X114.665 Y106.524 E0.02586
M73 Q2 S14
G1 X114.603 Y106.016 E0.02586
G1 X114.566 Y105.505 E0.02586
G1 X114.553 Y104.993 E0.02587
G1 X114.566 Y104.481 E0.02586
G1 X114.604 Y103.970 E0.02586
G1 X114.667 Y103.461 E0.02586
G1 X114.755 Y102.956 E0.02587
G1 X114.868 Y102.457 E0.02586
G1 X115.005 Y101.963 E0.02586
G1 X115.166 Y101.476 E0.02586
G1 X115.351 Y100.999 E0.02586
G1 X115.559 Y100.530 E0.02586
M73 P2 R14
G1 X115.789 Y100.073 E0.02586
G1 X116.042 Y99.627 E0.02586
G1 X116.317 Y99.194 E0.02587
G1 X116.788 Y98.550 E0.04031
; printing object 9_PuleggiaT.stl id:0 copy 0
G1 X117.458 Y99.046 F10800.000
;TYPE:External perimeter
G1 F1200.000
G1 X117.564 Y98.904 E0.00898
G1 X118.197 Y98.205 E0.04761
G1 X118.896 Y97.572 E0.04760
G1 X119.653 Y97.010 E0.04760
G1 X120.462 Y96.525 E0.04761
G1 X121.315 Y96.122 E0.04761
G1 X122.204 Y95.804 E0.04766
G1 X124.539 Y95.201 E0.12174
G1 X125.443 Y95.201 E0.04562
G1 X126.373 Y95.451 E0.04865
G1 X126.865 Y95.562 E0.02543
G1 X127.370 Y95.649 E0.02590
G1 X128.326 Y95.774 E0.04865
G1 X129.158 Y96.119 E0.04548
G1 X129.923 Y96.706 E0.04865
G1 X130.342 Y97.002 E0.02590
G1 X130.768 Y97.271 E0.02543
G1 X131.603 Y97.752 E0.04864
G1 X132.240 Y98.390 E0.04549
G1 X132.721 Y99.224 E0.04864
G1 X132.990 Y99.650 E0.02543
G1 X133.286 Y100.070 E0.02590
G1 X133.873 Y100.834 E0.04865
G1 X134.218 Y101.666 E0.04549
G1 X134.343 Y102.622 E0.04865
G1 X134.428 Y103.118 E0.02543
G1 X134.541 Y103.619 E0.02590
G1 X134.791 Y104.549 E0.04865
G1 X134.791 Y105.452 E0.04557
G1 X134.189 Y107.788 E0.12179
G1 X133.870 Y108.677 E0.04766
G1 X133.467 Y109.530 E0.04761
G1 X132.982 Y110.339 E0.04761
G1 X132.421 Y111.096 E0.04760
G1 X131.787 Y111.795 E0.04761
G1 X131.089 Y112.428 E0.04760
G1 X130.331 Y112.990 E0.04761
G1 X129.522 Y113.475 E0.04760
G1 X128.670 Y113.878 E0.04760
G1 X127.782 Y114.196 E0.04761
G1 X126.867 Y114.425 E0.04761
G1 X125.934 Y114.564 E0.04760
G1 X124.992 Y114.610 E0.04761
G1 X124.050 Y114.564 E0.04760
G1 X123.117 Y114.425 E0.04761
G1 X122.203 Y114.196 E0.04760
G1 X121.315 Y113.878 E0.04760
G1 X120.462 Y113.475 E0.04761
G1 X119.653 Y112.990 E0.04761
G1 X118.896 Y112.428 E0.04760
G1 X118.197 Y111.795 E0.04761
G1 X117.564 Y111.096 E0.04760
G1 X117.002 Y110.339 E0.04761
G1 X116.517 Y109.530 E0.04760
G1 X116.114 Y108.678 E0.04760
G1 X115.796 Y107.790 E0.04761
G1 X115.567 Y106.875 E0.04761
G1 X115.429 Y105.942 E0.04760
G1 X115.382 Y105.000 E0.04761
G1 X115.429 Y104.058 E0.04760
G1 X115.567 Y103.125 E0.04761
G1 X115.796 Y102.210 E0.04760
G1 X116.114 Y101.322 E0.04760
G1 X116.517 Y100.470 E0.04761
G1 X117.002 Y99.661 E0.04761
G1 X117.404 Y99.119 E0.03408
G1 X117.635 Y99.064 F10800.000
;WIPE_START
G1 F8640.000
G1 X117.564 Y98.904 E-0.06184
G1 X118.197 Y98.205 E-0.21777
G1 X118.896 Y97.572 E-0.21775
G1 X119.653 Y97.010 E-0.21775
G1 X119.820 Y96.910 E-0.04489
;WIPE_END
G1 E-0.04000 F2100.000
G1 Z0.600 F10800.000
G1 X132.664 Y104.743
G1 Z0.200
G1 E0.80000 F2100.000
G1 F1200.000
G1 X132.738 Y104.562 E0.00987
G1 X132.983 Y104.298 E0.01818
G1 X133.293 Y104.163 E0.01709
G1 X133.548 Y104.136 E0.01293
G1 X133.925 Y104.278 E0.02035
G1 X134.116 Y104.533 E0.01606
G1 X134.223 Y104.746 E0.01206
G1 X134.270 Y104.977 E0.01189
G1 X134.223 Y105.262 E0.01455
G1 X133.968 Y105.690 E0.02517
G1 X133.548 Y105.866 E0.02298
G1 X133.233 Y105.823 E0.01603
G1 X132.919 Y105.655 E0.01799
G1 X132.690 Y105.354 E0.01907
G1 X132.628 Y105.057 E0.01531
G1 X132.654 Y104.833 E0.01141
G1 X132.523 Y104.608 F10800.000
